!!!OTL: Graf und Nonne (Die Nonne) Ich stand auf hohem Berge
!!!ARE: Europa, Mitteleuropa, Deutschland (), Sachsen, Eisleben
!!!YOR: 8, S. 292
!!    1839 aufgezeichnet
!!!SCT: Q0155W.
!!!YEM: Copyright 1995, estate of Helmut Schaffrath.
**kern
*ICvox
*Ivox
*M2/4
*k[f#]
*G:
{16g
16b
=1
8.dd
16gg
16dd
16b
16cc
16a
=2
4b
8a}
{8a
=3
8b
8gg
8ff#
8ee
=4
4dd
8r}
{16g
16b
=5
8.dd
16gg
16dd
16b
16cc
16a
=6
4b
8a}
{8a
=7
8b
8gg
8ff#
8ee
=8
4dd
8r}
{8dd
=9
8gg
8gg
16ff#
16ee
8ff#
=10
4ee
8dd
8r
=11
4cc
8b}
{8dd
=12
8ee
16dd
16cc
8b
8a
=13
4g
8r}
{8dd
=14
8gg
8gg
16ff#
16ee
8ff#
=15
4ee
8dd
8r
=16
4cc
8b}
{8dd
=17
8ee
16dd
16cc
8b
8a
=18
4g
8r}
==
!!!AGN: Ballade, Standesunterschied, vergebliche Werbung, Liebe, Klage
!! Anhaengsel an der fuenften und siebten Zeile.
!!!ONB: ESAC (Essen Associative Code) Database: BALLADE
!!!AMT: simple duple
!!!AIN: vox
!!!EED: Helmut Schaffrath
!!!EEV: 1.0
*-
